assets/icons/action/edit_relationship.svg

<?xml version="1.0"?><svg xmlns="http://www.w3.org/2000/svg" width="52" height="52" viewBox="0 0 52 52"><path fill="#fff" d="m43 42h-3v-6h3c0.6 0 1-0.4 1-1v-26c0-0.6-0.4-1-1-1h-26c-0.6 0-1 0.4-1 1v3h-6v-3c0-3.9 3.1-7 7-7h26c3.9 0 7 3.1 7 7v26c0 3.9-3.1 7-7 7z m-11-26h-26c-2.2 0-4 1.8-4 4v26c0 2.2 1.8 4 4 4h26c2.2 0 4-1.8 4-4v-26c0-2.2-1.8-4-4-4z m-17.2 25.5c-0.2 0.2-0.3 0.2-0.5 0.3l-4.5 1.1c-0.4 0.1-0.8-0.3-0.7-0.7l1.1-4.5c0-0.1 0.1-0.2 0.2-0.4l0.1-0.1c0.1-0.1 0.4-0.1 0.5 0l3.7 3.7c0.2 0.3 0.2 0.6 0.1 0.6z m10.9-11l-9.2 9.3c-0.2 0.2-0.4 0.2-0.6 0l-3.7-3.7c-0.2-0.1-0.2-0.4 0-0.5l9.3-9.3c0.2-0.2 0.4-0.2 0.6 0l3.7 3.7c0 0.1 0 0.3-0.1 0.5z m2.8-2.8l-1 1c-0.2 0.2-0.4 0.2-0.6 0l-3.7-3.7c-0.2-0.2-0.2-0.4 0-0.6l1-1c0.7-0.7 1.7-0.7 2.4 0l2 2c0.6 0.7 0.6 1.7-0.1 2.3z"></path></svg>

<svg xmlns="http://www.w3.org/2000/svg" x="0px" y="0px"
	 width="52px" height="52px" viewBox="0 0 52 52" enable-background="new 0 0 52 52" xml:space="preserve">
<g>
	<g>
		<path fill="#FFFFFF" d="M43,42h-3v-6h3c0.6,0,1-0.4,1-1V9c0-0.6-0.4-1-1-1H17c-0.6,0-1,0.4-1,1v3h-6V9c0-3.9,3.1-7,7-7h26
			c3.9,0,7,3.1,7,7v26C50,38.9,46.9,42,43,42z"/>
	</g>
</g>
<path fill="#FFFFFF" d="M32,16H6c-2.2,0-4,1.8-4,4v26c0,2.2,1.8,4,4,4h26c2.2,0,4-1.8,4-4V20C36,17.8,34.2,16,32,16z M14.8,41.5
	L14.8,41.5c-0.2,0.2-0.3,0.2-0.5,0.3l-4.5,1.1C9.4,43,9,42.6,9.1,42.2l1.1-4.5c0-0.1,0.1-0.2,0.2-0.4c0,0,0,0,0.1-0.1
	c0.1-0.1,0.4-0.1,0.5,0l3.7,3.7C14.9,41.2,14.9,41.5,14.8,41.5z M25.7,30.5l-9.2,9.3c-0.2,0.2-0.4,0.2-0.6,0l-3.7-3.7
	c-0.2-0.1-0.2-0.4,0-0.5l9.3-9.3c0.2-0.2,0.4-0.2,0.6,0l3.7,3.7C25.8,30.1,25.8,30.3,25.7,30.5z M28.5,27.7l-1,1
	c-0.2,0.2-0.4,0.2-0.6,0l-3.7-3.7c-0.2-0.2-0.2-0.4,0-0.6l1-1c0.7-0.7,1.7-0.7,2.4,0l2,2C29.2,26.1,29.2,27.1,28.5,27.7z"/>
</svg>
